public/symbol-colors.svg

<svg xmlns="http://www.w3.org/2000/svg" width="640" height="399" viewBox="0 0 640 399" xmlns:xlink="http://www.w3.org/1999/xlink">
  <defs>
    <path id="c" d="M0 0h213v200H0z"/>
    <path id="a" d="M0 199h213v200H0z"/>
    <mask id="d" width="213" height="200" x="0" y="0" fill="#fff">
      <use xlink:href="#a"/>
    </mask>
    <path id="b" d="M426 0h214v200H426z"/>
    <mask id="e" width="214" height="200" x="0" y="0" fill="#fff">
      <use xlink:href="#b"/>
    </mask>
    <path id="f" d="M426 199h214v200H426z"/>
    <path id="g" d="M106.601848 322.504183c-2.829004-3.377744-4.541394-7.73064-4.541394-12.482397l.007948-30.88742c0-2.518878 2.0371-4.567182 4.541394-4.567182 2.50401 0 4.541394 2.048304 4.541394 4.567183l-.007948 30.88742c0 4.751756-1.71239 9.104652-4.541394 12.482396zm34.060455-12.482397c0 10.703524-8.562515 19.41103-19.20527 19.41103-4.286793 0-8.286058-1.430012-11.49285-3.81689 3.585714-4.19718 5.720453-9.6398 5.720453-15.59414l.007948-30.88742c0-5.036615-4.074766-9.134366-9.082788-9.134366-5.008306 0-9.082788 4.09775-9.082788 9.134367l-.007947 30.88742c0 5.954338 2.27808 11.396958 5.863795 15.594138-3.206792 2.38688-7.206057 3.81689-11.49285 3.81689-10.642756 0-19.348608-8.707505-19.348608-19.41103V272.34202H68v37.679767C68 323.243047 78.79092 334 91.93797 334c5.57371 0 10.742952-1.948017 14.807216-5.18319C110.80945 332.051984 115.85948 334 121.43319 334c13.146767 0 23.77079-10.756953 23.77079-23.978214V272.34202h-4.541677v37.679766z"/>
  </defs>
  <g fill="none" fill-rule="evenodd">
    <path d="M0 0h640v400H0z"/>
    <use fill="#8D989F" xlink:href="#c"/>
    <use fill="#000" fill-opacity=".72" xlink:href="#c"/>
    <use fill="#FFF" stroke="#F1F4F5" stroke-width="2" mask="url(#d)" xlink:href="#a"/>
    <path fill="#FEBF02" d="M213 0h213v200H213z"/>
    <path fill="#9C00FE" d="M213 199h213v200H213z"/>
    <use fill="#FFF" stroke="#F1F4F5" stroke-width="2" mask="url(#e)" xlink:href="#b"/>
    <use fill="#8D989F" xlink:href="#f"/>
    <use fill="#000" fill-opacity=".72" xlink:href="#f"/>
    <path fill="#FFF" d="M106.601848 123.504183c-2.829004-3.377744-4.541394-7.73064-4.541394-12.482397l.007948-30.88742c0-2.518878 2.0371-4.567182 4.541394-4.567182 2.50401 0 4.541394 2.048304 4.541394 4.567183l-.007948 30.88742c0 4.751756-1.71239 9.104652-4.541394 12.482396zm34.060455-12.482397c0 10.703524-8.562515 19.41103-19.20527 19.41103-4.286793 0-8.286058-1.430012-11.49285-3.81689 3.585714-4.19718 5.720453-9.6398 5.720453-15.59414l.007948-30.88742c0-5.036615-4.074766-9.134366-9.082788-9.134366-5.008306 0-9.082788 4.09775-9.082788 9.134367l-.007947 30.88742c0 5.954338 2.27808 11.396958 5.863795 15.594138-3.206792 2.38688-7.206057 3.81689-11.49285 3.81689-10.642756 0-19.348608-8.707505-19.348608-19.41103V73.342022H68v37.679766C68 124.243046 78.79092 135 91.93797 135c5.57371 0 10.742952-1.948017 14.807216-5.18319C110.80945 133.051984 115.85948 135 121.43319 135c13.146767 0 23.77079-10.756953 23.77079-23.978214V73.34202h-4.541677v37.679766z"/>
    <path fill="#272A2C" d="M319.601848 123.504183c-2.829004-3.377744-4.541394-7.73064-4.541394-12.482397l.007948-30.88742c0-2.518878 2.0371-4.567182 4.541394-4.567182 2.50401 0 4.541394 2.048304 4.541394 4.567183l-.007948 30.88742c0 4.751756-1.71239 9.104652-4.541394 12.482396zm34.060455-12.482397c0 10.703524-8.562515 19.41103-19.20527 19.41103-4.286793 0-8.286058-1.430012-11.49285-3.81689 3.585714-4.19718 5.720453-9.6398 5.720453-15.59414l.007948-30.88742c0-5.036615-4.074766-9.134366-9.082788-9.134366-5.008306 0-9.082788 4.09775-9.082788 9.134367l-.007947 30.88742c0 5.954338 2.27808 11.396958 5.863795 15.594138-3.206792 2.38688-7.206057 3.81689-11.49285 3.81689-10.642756 0-19.348608-8.707505-19.348608-19.41103V73.342022H281v37.679766C281 124.243046 291.79092 135 304.93797 135c5.57371 0 10.742952-1.948017 14.807216-5.18319C323.80945 133.051984 328.85948 135 334.43319 135c13.146767 0 23.77079-10.756953 23.77079-23.978214V73.34202h-4.541677v37.679766z"/>
    <path fill="#2391D3" d="M533.601848 123.504183c-2.829004-3.377744-4.541394-7.73064-4.541394-12.482397l.007948-30.88742c0-2.518878 2.0371-4.567182 4.541394-4.567182 2.50401 0 4.541394 2.048304 4.541394 4.567183l-.007948 30.88742c0 4.751756-1.71239 9.104652-4.541394 12.482396zm34.060455-12.482397c0 10.703524-8.562515 19.41103-19.20527 19.41103-4.286793 0-8.286058-1.430012-11.49285-3.81689 3.585714-4.19718 5.720453-9.6398 5.720453-15.59414l.007948-30.88742c0-5.036615-4.074766-9.134366-9.082788-9.134366-5.008306 0-9.082788 4.09775-9.082788 9.134367l-.007947 30.88742c0 5.954338 2.27808 11.396958 5.863795 15.594138-3.206792 2.38688-7.206057 3.81689-11.49285 3.81689-10.642756 0-19.348608-8.707505-19.348608-19.41103V73.342022H495v37.679766C495 124.243046 505.79092 135 518.93797 135c5.57371 0 10.742952-1.948017 14.807216-5.18319C537.80945 133.051984 542.85948 135 548.43319 135c13.146767 0 23.77079-10.756953 23.77079-23.978214V73.34202h-4.541677v37.679766z"/>
    <use fill="#8D989F" xlink:href="#g"/>
    <use fill="#000" fill-opacity=".72" xlink:href="#g"/>
    <path fill="#FFF" d="M319.601848 322.504183c-2.829004-3.377744-4.541394-7.73064-4.541394-12.482397l.007948-30.88742c0-2.518878 2.0371-4.567182 4.541394-4.567182 2.50401 0 4.541394 2.048304 4.541394 4.567183l-.007948 30.88742c0 4.751756-1.71239 9.104652-4.541394 12.482396zm34.060455-12.482397c0 10.703524-8.562515 19.41103-19.20527 19.41103-4.286793 0-8.286058-1.430012-11.49285-3.81689 3.585714-4.19718 5.720453-9.6398 5.720453-15.59414l.007948-30.88742c0-5.036615-4.074766-9.134366-9.082788-9.134366-5.008306 0-9.082788 4.09775-9.082788 9.134367l-.007947 30.88742c0 5.954338 2.27808 11.396958 5.863795 15.594138-3.206792 2.38688-7.206057 3.81689-11.49285 3.81689-10.642756 0-19.348608-8.707505-19.348608-19.41103V272.34202H281v37.679767C281 323.243047 291.79092 334 304.93797 334c5.57371 0 10.742952-1.948017 14.807216-5.18319C323.80945 332.051984 328.85948 334 334.43319 334c13.146767 0 23.77079-10.756953 23.77079-23.978214V272.34202h-4.541677v37.679766z"/>
    <path fill="#FF8900" d="M533.601848 322.504183c-2.829004-3.377744-4.541394-7.73064-4.541394-12.482397l.007948-30.88742c0-2.518878 2.0371-4.567182 4.541394-4.567182 2.50401 0 4.541394 2.048304 4.541394 4.567183l-.007948 30.88742c0 4.751756-1.71239 9.104652-4.541394 12.482396zm34.060455-12.482397c0 10.703524-8.562515 19.41103-19.20527 19.41103-4.286793 0-8.286058-1.430012-11.49285-3.81689 3.585714-4.19718 5.720453-9.6398 5.720453-15.59414l.007948-30.88742c0-5.036615-4.074766-9.134366-9.082788-9.134366-5.008306 0-9.082788 4.09775-9.082788 9.134367l-.007947 30.88742c0 5.954338 2.27808 11.396958 5.863795 15.594138-3.206792 2.38688-7.206057 3.81689-11.49285 3.81689-10.642756 0-19.348608-8.707505-19.348608-19.41103V272.34202H495v37.679767C495 323.243047 505.79092 334 518.93797 334c5.57371 0 10.742952-1.948017 14.807216-5.18319C537.80945 332.051984 542.85948 334 548.43319 334c13.146767 0 23.77079-10.756953 23.77079-23.978214V272.34202h-4.541677v37.679766z"/>
  </g>
</svg>

<svg xmlns="http://www.w3.org/2000/svg" width="640" height="399" viewBox="0 0 640 399" xmlns:xlink="http://www.w3.org/1999/xlink">
  <defs>
    <rect id="c" width="213" height="200"/>
    <rect id="a" width="213" height="200" y="199"/>
    <mask id="d" width="213" height="200" x="0" y="0" fill="white">
      <use xlink:href="#a"/>
    </mask>
    <rect id="b" width="214" height="200" x="426"/>
    <mask id="e" width="214" height="200" x="0" y="0" fill="white">
      <use xlink:href="#b"/>
    </mask>
    <rect id="f" width="214" height="200" x="426" y="199"/>
    <path id="g" d="M106.601848,322.504183 C103.772844,319.126439 102.060454,314.773543 102.060454,310.021786 L102.068402,279.134367 C102.068402,276.615488 104.105501,274.567184 106.609796,274.567184 C109.113807,274.567184 111.15119,276.615488 111.15119,279.134367 L111.143242,310.021786 C111.143242,314.773543 109.430853,319.126439 106.601848,322.504183 L106.601848,322.504183 Z M140.662303,310.021786 C140.662303,320.72531 132.099788,329.432816 121.457032,329.432816 C117.17024,329.432816 113.170975,328.002804 109.964183,325.615925 C113.549897,321.418745 115.684636,315.976125 115.684636,310.021786 L115.692584,279.134367 C115.692584,274.097751 111.617818,270 106.609796,270 C101.60149,270 97.527008,274.097751 97.527008,279.134367 L97.5190606,310.021786 C97.5190606,315.976125 99.7971373,321.418745 103.382852,325.615925 C100.17606,328.002804 96.1767948,329.432816 91.8900028,329.432816 C81.2472461,329.432816 72.5413939,320.72531 72.5413939,310.021786 L72.5413939,272.342021 L68,272.342021 L68,310.021786 C68,323.243047 78.7909197,334 91.9379713,334 C97.5116808,334 102.680922,332.051983 106.745186,328.816811 C110.80945,332.051983 115.85948,334 121.433189,334 C134.579957,334 145.203981,323.243047 145.203981,310.021786 L145.203981,272.342021 L140.662303,272.342021 L140.662303,310.021786 Z"/>
  </defs>
  <g fill="none" fill-rule="evenodd">
    <rect width="640" height="400"/>
    <use fill="#8D989F" xlink:href="#c"/>
    <use fill="#000000" fill-opacity=".72" xlink:href="#c"/>
    <use fill="#FFFFFF" stroke="#F1F4F5" stroke-width="2" mask="url(#d)" xlink:href="#a"/>
    <rect width="213" height="200" x="213" fill="#FEBF02"/>
    <rect width="213" height="200" x="213" y="199" fill="#9C00FE"/>
    <use fill="#FFFFFF" stroke="#F1F4F5" stroke-width="2" mask="url(#e)" xlink:href="#b"/>
    <use fill="#8D989F" xlink:href="#f"/>
    <use fill="#000000" fill-opacity=".72" xlink:href="#f"/>
    <path fill="#FFFFFF" d="M106.601848,123.504183 C103.772844,120.126439 102.060454,115.773543 102.060454,111.021786 L102.068402,80.1343673 C102.068402,77.6154876 104.105501,75.5671836 106.609796,75.5671836 C109.113807,75.5671836 111.15119,77.6154876 111.15119,80.1343673 L111.143242,111.021786 C111.143242,115.773543 109.430853,120.126439 106.601848,123.504183 L106.601848,123.504183 Z M140.662303,111.021786 C140.662303,121.72531 132.099788,130.432816 121.457032,130.432816 C117.17024,130.432816 113.170975,129.002804 109.964183,126.615925 C113.549897,122.418745 115.684636,116.976125 115.684636,111.021786 L115.692584,80.1343673 C115.692584,75.0977509 111.617818,71 106.609796,71 C101.60149,71 97.527008,75.0977509 97.527008,80.1343673 L97.5190606,111.021786 C97.5190606,116.976125 99.7971373,122.418745 103.382852,126.615925 C100.17606,129.002804 96.1767948,130.432816 91.8900028,130.432816 C81.2472461,130.432816 72.5413939,121.72531 72.5413939,111.021786 L72.5413939,73.3420209 L68,73.3420209 L68,111.021786 C68,124.243047 78.7909197,135 91.9379713,135 C97.5116808,135 102.680922,133.051983 106.745186,129.816811 C110.80945,133.051983 115.85948,135 121.433189,135 C134.579957,135 145.203981,124.243047 145.203981,111.021786 L145.203981,73.3420209 L140.662303,73.3420209 L140.662303,111.021786 Z"/>
    <path fill="#272A2C" d="M319.601848,123.504183 C316.772844,120.126439 315.060454,115.773543 315.060454,111.021786 L315.068402,80.1343673 C315.068402,77.6154876 317.105501,75.5671836 319.609796,75.5671836 C322.113807,75.5671836 324.15119,77.6154876 324.15119,80.1343673 L324.143242,111.021786 C324.143242,115.773543 322.430853,120.126439 319.601848,123.504183 L319.601848,123.504183 Z M353.662303,111.021786 C353.662303,121.72531 345.099788,130.432816 334.457032,130.432816 C330.17024,130.432816 326.170975,129.002804 322.964183,126.615925 C326.549897,122.418745 328.684636,116.976125 328.684636,111.021786 L328.692584,80.1343673 C328.692584,75.0977509 324.617818,71 319.609796,71 C314.60149,71 310.527008,75.0977509 310.527008,80.1343673 L310.519061,111.021786 C310.519061,116.976125 312.797137,122.418745 316.382852,126.615925 C313.17606,129.002804 309.176795,130.432816 304.890003,130.432816 C294.247246,130.432816 285.541394,121.72531 285.541394,111.021786 L285.541394,73.3420209 L281,73.3420209 L281,111.021786 C281,124.243047 291.79092,135 304.937971,135 C310.511681,135 315.680922,133.051983 319.745186,129.816811 C323.80945,133.051983 328.85948,135 334.433189,135 C347.579957,135 358.203981,124.243047 358.203981,111.021786 L358.203981,73.3420209 L353.662303,73.3420209 L353.662303,111.021786 Z"/>
    <path fill="#2391D3" d="M533.601848,123.504183 C530.772844,120.126439 529.060454,115.773543 529.060454,111.021786 L529.068402,80.1343673 C529.068402,77.6154876 531.105501,75.5671836 533.609796,75.5671836 C536.113807,75.5671836 538.15119,77.6154876 538.15119,80.1343673 L538.143242,111.021786 C538.143242,115.773543 536.430853,120.126439 533.601848,123.504183 L533.601848,123.504183 Z M567.662303,111.021786 C567.662303,121.72531 559.099788,130.432816 548.457032,130.432816 C544.17024,130.432816 540.170975,129.002804 536.964183,126.615925 C540.549897,122.418745 542.684636,116.976125 542.684636,111.021786 L542.692584,80.1343673 C542.692584,75.0977509 538.617818,71 533.609796,71 C528.60149,71 524.527008,75.0977509 524.527008,80.1343673 L524.519061,111.021786 C524.519061,116.976125 526.797137,122.418745 530.382852,126.615925 C527.17606,129.002804 523.176795,130.432816 518.890003,130.432816 C508.247246,130.432816 499.541394,121.72531 499.541394,111.021786 L499.541394,73.3420209 L495,73.3420209 L495,111.021786 C495,124.243047 505.79092,135 518.937971,135 C524.511681,135 529.680922,133.051983 533.745186,129.816811 C537.80945,133.051983 542.85948,135 548.433189,135 C561.579957,135 572.203981,124.243047 572.203981,111.021786 L572.203981,73.3420209 L567.662303,73.3420209 L567.662303,111.021786 Z"/>
    <use fill="#8D989F" xlink:href="#g"/>
    <use fill="#000000" fill-opacity=".72" xlink:href="#g"/>
    <path fill="#FFFFFF" d="M319.601848,322.504183 C316.772844,319.126439 315.060454,314.773543 315.060454,310.021786 L315.068402,279.134367 C315.068402,276.615488 317.105501,274.567184 319.609796,274.567184 C322.113807,274.567184 324.15119,276.615488 324.15119,279.134367 L324.143242,310.021786 C324.143242,314.773543 322.430853,319.126439 319.601848,322.504183 L319.601848,322.504183 Z M353.662303,310.021786 C353.662303,320.72531 345.099788,329.432816 334.457032,329.432816 C330.17024,329.432816 326.170975,328.002804 322.964183,325.615925 C326.549897,321.418745 328.684636,315.976125 328.684636,310.021786 L328.692584,279.134367 C328.692584,274.097751 324.617818,270 319.609796,270 C314.60149,270 310.527008,274.097751 310.527008,279.134367 L310.519061,310.021786 C310.519061,315.976125 312.797137,321.418745 316.382852,325.615925 C313.17606,328.002804 309.176795,329.432816 304.890003,329.432816 C294.247246,329.432816 285.541394,320.72531 285.541394,310.021786 L285.541394,272.342021 L281,272.342021 L281,310.021786 C281,323.243047 291.79092,334 304.937971,334 C310.511681,334 315.680922,332.051983 319.745186,328.816811 C323.80945,332.051983 328.85948,334 334.433189,334 C347.579957,334 358.203981,323.243047 358.203981,310.021786 L358.203981,272.342021 L353.662303,272.342021 L353.662303,310.021786 Z"/>
    <path fill="#FF8900" d="M533.601848,322.504183 C530.772844,319.126439 529.060454,314.773543 529.060454,310.021786 L529.068402,279.134367 C529.068402,276.615488 531.105501,274.567184 533.609796,274.567184 C536.113807,274.567184 538.15119,276.615488 538.15119,279.134367 L538.143242,310.021786 C538.143242,314.773543 536.430853,319.126439 533.601848,322.504183 L533.601848,322.504183 Z M567.662303,310.021786 C567.662303,320.72531 559.099788,329.432816 548.457032,329.432816 C544.17024,329.432816 540.170975,328.002804 536.964183,325.615925 C540.549897,321.418745 542.684636,315.976125 542.684636,310.021786 L542.692584,279.134367 C542.692584,274.097751 538.617818,270 533.609796,270 C528.60149,270 524.527008,274.097751 524.527008,279.134367 L524.519061,310.021786 C524.519061,315.976125 526.797137,321.418745 530.382852,325.615925 C527.17606,328.002804 523.176795,329.432816 518.890003,329.432816 C508.247246,329.432816 499.541394,320.72531 499.541394,310.021786 L499.541394,272.342021 L495,272.342021 L495,310.021786 C495,323.243047 505.79092,334 518.937971,334 C524.511681,334 529.680922,332.051983 533.745186,328.816811 C537.80945,332.051983 542.85948,334 548.433189,334 C561.579957,334 572.203981,323.243047 572.203981,310.021786 L572.203981,272.342021 L567.662303,272.342021 L567.662303,310.021786 Z"/>
  </g>
</svg>
